icons/project-32.svg

<svg width="32" height="32" viewBox="0 0 32 32" fill="none" xmlns="http://www.w3.org/2000/svg">
<g clip-path="url(#clip0)">
<path d="M28.5 1.5H3.5C2.39543 1.5 1.5 2.39543 1.5 3.5V28.5C1.5 29.6046 2.39543 30.5 3.5 30.5H28.5C29.6046 30.5 30.5 29.6046 30.5 28.5V3.5C30.5 2.39543 29.6046 1.5 28.5 1.5Z" stroke="black" stroke-width="3" stroke-linecap="round"/>
<path d="M12.5 1.5L12.5 31" stroke="black" stroke-width="3" stroke-linecap="round"/>
<path d="M29.75 12.5L0.25 12.5" stroke="black" stroke-width="3" stroke-linecap="round"/>
</g>
<defs>
<clipPath id="clip0">
<rect width="32" height="32" fill="white"/>
</clipPath>
</defs>
</svg>

<svg xmlns="http://www.w3.org/2000/svg" width="32" height="32" viewBox="0 0 32 32"><path stroke="#000" stroke-linecap="round" stroke-width="3" d="M28.5 1.5h-25a2 2 0 00-2 2v25a2 2 0 002 2h25a2 2 0 002-2v-25a2 2 0 00-2-2zm-16 0V31m17.25-18.5H.25"/></svg>
